images/kickoff_event/bright-lightbulb.svg

<?xml version="1.0" encoding="iso-8859-1"?>
<!-- Generator: Adobe Illustrator 16.0.0, SVG Export Plug-In . SVG Version: 6.00 Build 0)  -->
<!DOCTYPE svg PUBLIC "-//W3C//DTD SVG 1.1//EN" "http://www.w3.org/Graphics/SVG/1.1/DTD/svg11.dtd">
<svg version="1.1" id="Capa_1" xmlns="http://www.w3.org/2000/svg" xmlns:xlink="http://www.w3.org/1999/xlink" x="0px" y="0px"
	 width="47px" height="47px" viewBox="0 0 47 47" style="enable-background:new 0 0 47 47;" xml:space="preserve">
<g>
	<g>
		<path d="M23.5,11.449c-6.385,0-11.563,4.959-11.563,11.077c0,7.265,5.045,9.117,5.045,13.344c0,1.045,0.799,2.017,1.999,2.731
			c-0.251,0.209-0.391,0.438-0.391,0.678c0,0.322,0.253,0.623,0.688,0.881c-0.408,0.253-0.645,0.544-0.645,0.855
			c0,0.314,0.242,0.608,0.659,0.863c-0.426,0.256-0.674,0.555-0.674,0.872c0,0.388,0.366,0.743,0.978,1.032
			c-0.237,0.215-0.373,0.453-0.373,0.703c0,0.74,1.153,1.369,2.774,1.621C22.282,46.634,22.86,47,23.534,47
			c0.673,0,1.25-0.363,1.535-0.889c1.637-0.248,2.803-0.881,2.803-1.623c0-0.247-0.131-0.482-0.363-0.694
			c0.625-0.291,0.998-0.651,0.998-1.042c0-0.314-0.241-0.609-0.659-0.863c0.425-0.257,0.674-0.554,0.674-0.871
			c0-0.322-0.254-0.623-0.688-0.882c0.41-0.252,0.646-0.544,0.646-0.855c0-0.249-0.151-0.484-0.421-0.698
			c1.181-0.713,1.966-1.675,1.966-2.711c0-4.229,5.039-6.08,5.039-13.344C35.063,16.408,29.886,11.449,23.5,11.449z M29.538,29.381
			c-1.152,1.692-2.455,3.604-2.535,6.232c-0.396,0.441-1.809,1.158-3.499,1.158c-1.691,0-3.105-0.717-3.5-1.16
			c-0.08-2.629-1.385-4.541-2.539-6.232c-1.287-1.886-2.502-3.667-2.502-6.854c0-4.439,3.83-8.051,8.537-8.051
			c4.708,0,8.538,3.612,8.538,8.051C32.038,25.713,30.823,27.495,29.538,29.381z"/>
		<path d="M23.5,7.564c0.832,0,1.513-0.9,1.513-2V2c0-1.1-0.681-2-1.513-2s-1.513,0.9-1.513,2v3.564
			C21.987,6.665,22.668,7.564,23.5,7.564z"/>
		<path d="M15.747,9.642c0.721-0.416,0.859-1.536,0.31-2.488l-1.781-3.087c-0.55-0.953-1.59-1.392-2.311-0.976
			c-0.721,0.416-0.86,1.536-0.311,2.488l1.783,3.087C13.987,9.619,15.026,10.058,15.747,9.642z"/>
		<path d="M9.095,13.007L6.01,11.225c-0.953-0.55-2.073-0.411-2.489,0.31c-0.416,0.721,0.022,1.76,0.976,2.31l3.086,1.782
			c0.953,0.55,2.073,0.411,2.488-0.31C10.486,14.596,10.048,13.557,9.095,13.007z"/>
		<path d="M42.504,32.295l-3.086-1.781c-0.953-0.551-2.073-0.412-2.488,0.31c-0.416,0.721,0.021,1.76,0.977,2.31l3.084,1.782
			c0.953,0.55,2.073,0.411,2.489-0.31C43.896,33.884,43.458,32.845,42.504,32.295z"/>
		<path d="M7.994,23.07c0-0.833-0.9-1.513-2-1.513H2.43c-1.1,0-2,0.681-2,1.513c0,0.832,0.9,1.513,2,1.513h3.564
			C7.094,24.583,7.994,23.902,7.994,23.07z"/>
		<path d="M44.57,21.557h-3.563c-1.101,0-2,0.681-2,1.513c0,0.832,0.899,1.513,2,1.513h3.563c1.101,0,2-0.681,2-1.513
			C46.57,22.238,45.67,21.557,44.57,21.557z"/>
		<path d="M7.582,30.514l-3.086,1.781c-0.953,0.55-1.392,1.589-0.976,2.311c0.416,0.721,1.536,0.859,2.489,0.31l3.085-1.782
			c0.953-0.55,1.392-1.589,0.976-2.31C9.655,30.104,8.535,29.963,7.582,30.514z"/>
		<path d="M39.418,15.627l3.086-1.782c0.953-0.55,1.392-1.589,0.976-2.31c-0.416-0.721-1.536-0.86-2.489-0.31l-3.085,1.782
			c-0.952,0.55-1.392,1.589-0.976,2.31C37.345,16.038,38.465,16.177,39.418,15.627z"/>
		<path d="M35.036,3.09c-0.722-0.416-1.762,0.023-2.312,0.976l-1.781,3.087c-0.55,0.953-0.411,2.072,0.31,2.488
			c0.722,0.416,1.761-0.023,2.311-0.976l1.783-3.087C35.896,4.626,35.756,3.506,35.036,3.09z"/>
	</g>
</g>
<g>
</g>
<g>
</g>
<g>
</g>
<g>
</g>
<g>
</g>
<g>
</g>
<g>
</g>
<g>
</g>
<g>
</g>
<g>
</g>
<g>
</g>
<g>
</g>
<g>
</g>
<g>
</g>
<g>
</g>
</svg>

<?xml version="1.0" encoding="UTF-8" standalone="no"?>
<svg width="47px" height="47px" viewBox="0 0 47 47" version="1.1" xmlns="http://www.w3.org/2000/svg" xmlns:xlink="http://www.w3.org/1999/xlink">
    <!-- Generator: Sketch 39.1 (31720) - http://www.bohemiancoding.com/sketch -->
    <title>Slice 1</title>
    <desc>Created with Sketch.</desc>
    <defs></defs>
    <g id="Page-1" stroke="none" stroke-width="1" fill="none" fill-rule="evenodd">
        <path d="M23.5,11.449 C17.115,11.449 11.937,16.408 11.937,22.526 C11.937,29.791 16.982,31.643 16.982,35.87 C16.982,36.915 17.781,37.887 18.981,38.601 C18.73,38.81 18.59,39.039 18.59,39.279 C18.59,39.601 18.843,39.902 19.278,40.16 C18.87,40.413 18.633,40.704 18.633,41.015 C18.633,41.329 18.875,41.623 19.292,41.878 C18.866,42.134 18.618,42.433 18.618,42.75 C18.618,43.138 18.984,43.493 19.596,43.782 C19.359,43.997 19.223,44.235 19.223,44.485 C19.223,45.225 20.376,45.854 21.997,46.106 C22.282,46.634 22.86,47 23.534,47 C24.207,47 24.784,46.637 25.069,46.111 C26.706,45.863 27.872,45.23 27.872,44.488 C27.872,44.241 27.741,44.006 27.509,43.794 C28.134,43.503 28.507,43.143 28.507,42.752 C28.507,42.438 28.266,42.143 27.848,41.889 C28.273,41.632 28.522,41.335 28.522,41.018 C28.522,40.696 28.268,40.395 27.834,40.136 C28.244,39.884 28.48,39.592 28.48,39.281 C28.48,39.032 28.329,38.797 28.059,38.583 C29.24,37.87 30.025,36.908 30.025,35.872 C30.025,31.643 35.064,29.792 35.064,22.528 C35.063,16.408 29.886,11.449 23.5,11.449 L23.5,11.449 Z M29.538,29.381 C28.386,31.073 27.083,32.985 27.003,35.613 C26.607,36.054 25.194,36.771 23.504,36.771 C21.813,36.771 20.399,36.054 20.004,35.611 C19.924,32.982 18.619,31.07 17.465,29.379 C16.178,27.493 14.963,25.712 14.963,22.525 C14.963,18.086 18.793,14.474 23.5,14.474 C28.208,14.474 32.038,18.086 32.038,22.525 C32.038,25.713 30.823,27.495 29.538,29.381 L29.538,29.381 Z" id="Shape" fill="#FFFFFF"></path>
        <path d="M23.5,7.564 C24.332,7.564 25.013,6.664 25.013,5.564 L25.013,2 C25.013,0.9 24.332,0 23.5,0 C22.668,0 21.987,0.9 21.987,2 L21.987,5.564 C21.987,6.665 22.668,7.564 23.5,7.564 L23.5,7.564 Z" id="Shape" fill="#FFFFFF"></path>
        <path d="M15.747,9.642 C16.468,9.226 16.606,8.106 16.057,7.154 L14.276,4.067 C13.726,3.114 12.686,2.675 11.965,3.091 C11.244,3.507 11.105,4.627 11.654,5.579 L13.437,8.666 C13.987,9.619 15.026,10.058 15.747,9.642 L15.747,9.642 Z" id="Shape" fill="#FFFFFF"></path>
        <path d="M9.095,13.007 L6.01,11.225 C5.057,10.675 3.937,10.814 3.521,11.535 C3.105,12.256 3.543,13.295 4.497,13.845 L7.583,15.627 C8.536,16.177 9.656,16.038 10.071,15.317 C10.486,14.596 10.048,13.557 9.095,13.007 L9.095,13.007 Z" id="Shape" fill="#FFFFFF"></path>
        <path d="M42.504,32.295 L39.418,30.514 C38.465,29.963 37.345,30.102 36.93,30.824 C36.514,31.545 36.951,32.584 37.907,33.134 L40.991,34.916 C41.944,35.466 43.064,35.327 43.48,34.606 C43.896,33.884 43.458,32.845 42.504,32.295 L42.504,32.295 Z" id="Shape" fill="#FFFFFF"></path>
        <path d="M7.994,23.07 C7.994,22.237 7.094,21.557 5.994,21.557 L2.43,21.557 C1.33,21.557 0.43,22.238 0.43,23.07 C0.43,23.902 1.33,24.583 2.43,24.583 L5.994,24.583 C7.094,24.583 7.994,23.902 7.994,23.07 L7.994,23.07 Z" id="Shape" fill="#FFFFFF"></path>
        <path d="M44.57,21.557 L41.007,21.557 C39.906,21.557 39.007,22.238 39.007,23.07 C39.007,23.902 39.906,24.583 41.007,24.583 L44.57,24.583 C45.671,24.583 46.57,23.902 46.57,23.07 C46.57,22.238 45.67,21.557 44.57,21.557 L44.57,21.557 Z" id="Shape" fill="#FFFFFF"></path>
        <path d="M7.582,30.514 L4.496,32.295 C3.543,32.845 3.104,33.884 3.52,34.606 C3.936,35.327 5.056,35.465 6.009,34.916 L9.094,33.134 C10.047,32.584 10.486,31.545 10.07,30.824 C9.655,30.104 8.535,29.963 7.582,30.514 L7.582,30.514 Z" id="Shape" fill="#FFFFFF"></path>
        <path d="M39.418,15.627 L42.504,13.845 C43.457,13.295 43.896,12.256 43.48,11.535 C43.064,10.814 41.944,10.675 40.991,11.225 L37.906,13.007 C36.954,13.557 36.514,14.596 36.93,15.317 C37.345,16.038 38.465,16.177 39.418,15.627 L39.418,15.627 Z" id="Shape" fill="#FFFFFF"></path>
        <path d="M35.036,3.09 C34.314,2.674 33.274,3.113 32.724,4.066 L30.943,7.153 C30.393,8.106 30.532,9.225 31.253,9.641 C31.975,10.057 33.014,9.618 33.564,8.665 L35.347,5.578 C35.896,4.626 35.756,3.506 35.036,3.09 L35.036,3.09 Z" id="Shape" fill="#FFFFFF"></path>
    </g>
</svg>
